X:3
T:Bourree de la Brande d'Ardentes
Z:Jack Campin, 2014
F:http://www.campin.me.uk/Music/YoupNannetteD.abc
S:p14, p1000203.jpg
M:2/4
L:1/8
Q:1/4=120
K:D
A>F DF|G3   d|c>A Bc|d>e fd|\
A>F DF|G3   d|c>A Bc|d4   :|
K:G
G2  B2|d>c A2|B>c AF|GE  FD|\
G2  B2|d>c A2|B>c AF|G4   :|

